images/vk.svg

<svg xmlns="http://www.w3.org/2000/svg" fill="none" viewBox="0 0 48 48">
  <path fill="#000" d="M37.1249 32.9531h-3.9375c-.4687 0-.9375-.2812-1.2187-.6562l-.375-.6094c-.2344-.2812-2.3906-2.7656-3.7031-3.5625-.5157-.2812-.7032-.2344-.7032-.2344s-.0468.1407-.0468.1875v2.4844c0 1.3125-1.0782 2.3437-2.3438 2.3437h-.9375c-.2344 0-5.4844-.0937-9.6562-6.3281-3.2813-4.875-4.3594-8.0625-4.7344-9.8906-.09375-.4219.04687-.8438.28125-1.1719.28125-.3281.65625-.5156 1.07815-.5156h3.3281c.6094 0 1.125.375 1.3125.9844.375 1.0781 1.3125 3.8437 2.4375 5.625 1.6406 2.7187 2.2969 2.9531 2.4844 2.9531.1406-.2344.0937-1.1719.0937-1.7812v-1.4532c0-1.1719.0469-2.7656-.4219-3.5156l-.9375-1.3594c-.1875-.2812-.2343-.6562-.0468-.9843.1406-.3282.4687-.5157.8437-.5157h5.3438c.7968 0 1.4062.6563 1.4062 1.4063v6.75c0 .0469.0469.0937.0469.0937s.1875 0 .7031-.4687c1.0781-1.0782 2.4375-3.0938 3.7969-5.8594l.4687-1.0781c.2344-.5156.75-.8438 1.3125-.8438h3.4688c.4687 0 .8906.2344 1.1719.6094.2812.375.3281.8906.1406 1.3125l-.375.9844v.0469c-.0469.0937-1.3125 2.5781-2.625 4.4062-1.0313 1.4063-1.4531 2.0625-1.3594 2.2969.0938.1406.7031.8437 1.3125 1.4062 1.125 1.1719 2.5313 2.6719 3.0469 3.6563.2344.4219.4687.7969.6094 1.125.2343.4219.2343.9375-.0469 1.4062-.2813.5157-.7031.75-1.2188.75Zm-9.8437-6c.3281 0 .7031.1407 1.125.375 1.5469.8907 3.8906 3.6563 3.9844 3.7969l.0468.0469.375.6093c.0938.1407.2344.2344.4219.2344h3.8906c.2344 0 .375-.1406.4219-.2344.0469-.0468.1406-.2343 0-.4687-.1875-.3281-.375-.7031-.6094-1.125-.4687-.8437-1.875-2.3437-2.9062-3.4687-1.0313-1.125-1.4063-1.5-1.5-1.7344-.2813-.7032.1406-1.2656 1.5-3.1406 1.2187-1.6875 2.3906-3.9844 2.5312-4.2657l.375-.9843c.0469-.1407.0469-.3282-.0468-.4219-.0938-.1406-.2344-.1875-.375-.1875h-3.4688c-.1875 0-.375.0937-.4219.2812l-.4687 1.125c-1.0313 2.0157-2.5313 4.6875-3.9844 6.1406-.6094.6094-1.1719.7969-1.6406.6563-.5625-.1875-.7031-.7969-.7031-.8437v-6.8907c0-.2812-.2344-.4687-.4688-.4687h-5.4375l.9375 1.3594c.6094.9843.6094 2.7187.5625 4.0781v1.3594c.0469 1.3125.0469 2.5312-.7969 2.7187-.9375.1875-1.9218-.7969-3.5156-3.375-1.0781-1.8281-2.0156-4.4062-2.4844-5.8125-.0468-.1875-.2343-.3281-.4687-.3281h-3.2813c-.1406 0-.2812.0469-.375.1875-.0937.0937-.0937.2344-.0937.375.3281 1.7344 1.4062 4.7812 4.5937 9.5625 3.8907 5.8125 8.8125 5.9062 8.8594 5.9062h.9375c.7969 0 1.4063-.6562 1.4063-1.4062V28.125c0-.0469 0-.7031.5156-1.0312.1875-.0938.375-.1407.5625-.1407Z"/>
  <circle cx="24" cy="24" r="23.5" stroke="#000"/>
</svg>

<svg width="48" height="48" viewBox="0 0 48 48" fill="none" xmlns="http://www.w3.org/2000/svg">
<circle cx="24" cy="24" r="23.5" stroke="black"/>
<path d="M37.1249 32.9531H33.1874C32.7187 32.9531 32.2499 32.6719 31.9687 32.2969L31.5937 31.6875C31.3593 31.4063 29.2031 28.9219 27.8906 28.125C27.3749 27.8438 27.1874 27.8906 27.1874 27.8906C27.1874 27.8906 27.1406 28.0313 27.1406 28.0781V30.5625C27.1406 31.875 26.0624 32.9062 24.7968 32.9062H23.8593C23.6249 32.9062 18.3749 32.8125 14.2031 26.5781C10.9218 21.7031 9.8437 18.5156 9.4687 16.6875C9.37495 16.2656 9.51557 15.8437 9.74995 15.5156C10.0312 15.1875 10.4062 15 10.8281 15H14.1562C14.7656 15 15.2812 15.375 15.4687 15.9844C15.8437 17.0625 16.7812 19.8281 17.9062 21.6094C19.5468 24.3281 20.2031 24.5625 20.3906 24.5625C20.5312 24.3281 20.4843 23.3906 20.4843 22.7813C20.4843 22.5 20.4843 22.2656 20.4843 21.9844C20.4843 21.7969 20.4843 21.5625 20.4843 21.3281C20.4843 20.1562 20.5312 18.5625 20.0624 17.8125L19.1249 16.4531C18.9374 16.1719 18.8906 15.7969 19.0781 15.4688C19.2187 15.1406 19.5468 14.9531 19.9218 14.9531H25.2656C26.0624 14.9531 26.6718 15.6094 26.6718 16.3594V23.1094C26.6718 23.1563 26.7187 23.2031 26.7187 23.2031C26.7187 23.2031 26.9062 23.2031 27.4218 22.7344C28.4999 21.6562 29.8593 19.6406 31.2187 16.875L31.6874 15.7969C31.9218 15.2813 32.4374 14.9531 32.9999 14.9531H36.4687C36.9374 14.9531 37.3593 15.1875 37.6406 15.5625C37.9218 15.9375 37.9687 16.4531 37.7812 16.875L37.4062 17.8594V17.9063C37.3593 18 36.0937 20.4844 34.7812 22.3125C33.7499 23.7188 33.3281 24.375 33.4218 24.6094C33.5156 24.75 34.1249 25.4531 34.7343 26.0156C35.8593 27.1875 37.2656 28.6875 37.7812 29.6719C38.0156 30.0938 38.2499 30.4688 38.3906 30.7969C38.6249 31.2188 38.6249 31.7344 38.3437 32.2031C38.0624 32.7188 37.6406 32.9531 37.1249 32.9531ZM27.2812 26.9531C27.6093 26.9531 27.9843 27.0938 28.4062 27.3281C29.9531 28.2188 32.2968 30.9844 32.3906 31.125L32.4374 31.1719L32.8124 31.7812C32.9062 31.9219 33.0468 32.0156 33.2343 32.0156H37.1249C37.3593 32.0156 37.4999 31.875 37.5468 31.7812C37.5937 31.7344 37.6874 31.5469 37.5468 31.3125C37.3593 30.9844 37.1718 30.6094 36.9374 30.1875C36.4687 29.3438 35.0624 27.8438 34.0312 26.7188C32.9999 25.5938 32.6249 25.2188 32.5312 24.9844C32.2499 24.2812 32.6718 23.7188 34.0312 21.8438C35.2499 20.1563 36.4218 17.8594 36.5624 17.5781L36.9374 16.5938C36.9843 16.4531 36.9843 16.2656 36.8906 16.1719C36.7968 16.0313 36.6562 15.9844 36.5156 15.9844H33.0468C32.8593 15.9844 32.6718 16.0781 32.6249 16.2656L32.1562 17.3906C31.1249 19.4063 29.6249 22.0781 28.1718 23.5312C27.5624 24.1406 26.9999 24.3281 26.5312 24.1875C25.9687 24 25.8281 23.3906 25.8281 23.3438C25.8281 23.2969 25.8281 23.2969 25.8281 23.25V16.4531C25.8281 16.1719 25.5937 15.9844 25.3593 15.9844H19.9218L20.8593 17.3438C21.4687 18.3281 21.4687 20.0625 21.4218 21.4219C21.4218 21.6563 21.4218 21.8438 21.4218 22.0312C21.4218 22.2656 21.4218 22.5469 21.4218 22.7813C21.4687 24.0938 21.4687 25.3125 20.6249 25.5C19.6874 25.6875 18.7031 24.7031 17.1093 22.125C16.0312 20.2969 15.0937 17.7188 14.6249 16.3125C14.5781 16.125 14.3906 15.9844 14.1562 15.9844H10.8749C10.7343 15.9844 10.5937 16.0313 10.4999 16.1719C10.4062 16.2656 10.4062 16.4063 10.4062 16.5469C10.7343 18.2813 11.8124 21.3281 14.9999 26.1094C18.8906 31.9219 23.8124 32.0156 23.8593 32.0156H24.7968C25.5937 32.0156 26.2031 31.3594 26.2031 30.6094V28.125C26.2031 28.0781 26.2031 27.4219 26.7187 27.0938C26.9062 27 27.0937 26.9531 27.2812 26.9531Z" fill="black"/>
</svg>
